Suru++-Ubuntu/apps/scalable/insomnia.svg

<svg width="256" height="256" style="isolation:isolate" viewBox="0 0 256 256" xmlns="http://www.w3.org/2000/svg">
 <defs>
  <clipPath id="_clipPath_71CS3nfljgh1V3xb0QuzON1SBzMVoJjc">
   <rect width="256" height="256"/>
  </clipPath>
 </defs>
 <g clip-path="url(#_clipPath_71CS3nfljgh1V3xb0QuzON1SBzMVoJjc)">
  <defs>
   <filter id="NuXi70QfJr3FmT8j2wNhFyAFWEtKQoOe" x="-200%" y="-200%" width="400%" height="400%" color-interpolation-filters="sRGB">
    <feGaussianBlur stdDeviation="1.16" xmlns="http://www.w3.org/2000/svg"/>
   </filter>
  </defs>
  <g filter="url(#NuXi70QfJr3FmT8j2wNhFyAFWEtKQoOe)" opacity=".1">
   <path d="m165.685 11.947c74.055 0 84.639 10.557 84.639 84.544v59.251c0 73.986-10.584 84.543-84.639 84.543h-75.37c-74.055 0-84.639-10.557-84.639-84.543v-59.251c0-73.987 10.584-84.544 84.639-84.544h75.37z"/>
  </g>
  <defs>
   <filter id="1Jsl0cVlh4yLD9HSF9NgwXJdqGXy9x4T" x="-200%" y="-200%" width="400%" height="400%" color-interpolation-filters="sRGB">
    <feGaussianBlur stdDeviation="2.32" xmlns="http://www.w3.org/2000/svg"/>
   </filter>
  </defs>
  <g filter="url(#1Jsl0cVlh4yLD9HSF9NgwXJdqGXy9x4T)" opacity=".2">
   <path d="m165.685 13.986c74.055 0 84.639 10.557 84.639 84.544v59.25c0 73.987-10.584 84.544-84.639 84.544h-75.37c-74.055 0-84.639-10.557-84.639-84.544v-59.25c0-73.987 10.584-84.544 84.639-84.544h75.37z"/>
  </g>
  <path d="m165.685 11.947c74.056 0 84.639 10.557 84.639 84.544v59.251c0 73.986-10.583 84.543-84.639 84.543h-75.37c-74.055 0-84.639-10.557-84.639-84.543v-59.251c0-73.987 10.584-84.544 84.639-84.544h75.37z" fill="#313042"/>
  <clipPath id="_clipPath_N1FJBPOSTaqYxfHPDplEfKmnTc6rpyoF">
   <path d="m165.685 11.947c74.056 0 84.639 10.557 84.639 84.544v59.251c0 73.986-10.583 84.543-84.639 84.543h-75.37c-74.055 0-84.639-10.557-84.639-84.543v-59.251c0-73.987 10.584-84.544 84.639-84.544h75.37z" fill="#FFFFFF"/>
  </clipPath>
  <g clip-path="url(#_clipPath_N1FJBPOSTaqYxfHPDplEfKmnTc6rpyoF)">
   <g opacity=".4">
    <linearGradient id="_lgradient_0" x1=".517" x2=".517" y2="1">
     <stop style="stop-color:rgb(255,255,255)" offset="0"/>
     <stop stop-opacity=".098" style="stop-color:rgb(255,255,255)" offset=".125"/>
     <stop stop-opacity=".098" style="stop-color:rgb(0,0,0)" offset=".925"/>
     <stop stop-opacity=".498" style="stop-color:rgb(0,0,0)" offset="1"/>
    </linearGradient>
    <path d="m165.685 11.947c74.056 0 84.639 10.557 84.639 84.544v59.251c0 73.986-10.583 84.543-84.639 84.543h-75.37c-74.055 0-84.639-10.557-84.639-84.543v-59.251c0-73.987 10.584-84.544 84.639-84.544h75.37z" fill="none" stroke="url(#_lgradient_0)" stroke-linecap="round" stroke-linejoin="round" stroke-width="4.077" vector-effect="non-scaling-stroke"/>
   </g>
  </g>
  <g opacity=".4">
   <circle cx="130" cy="131" r="80" vector-effect="non-scaling-stroke"/>
  </g>
  <circle cx="128" cy="128" r="80" fill="#EBEBEB" vector-effect="non-scaling-stroke"/>
  <path d="m62.784 102.526c-3.087 7.897-4.784 16.489-4.784 25.474 0 38.634 31.366 70 70 70s70-31.366 70-70-31.366-70-70-70c-7.152 0-14.055 1.075-20.55 3.085 7.611 5.655 12.55 14.713 12.55 24.915 0 17.109-13.891 31-31 31-11.034 0-20.729-5.777-26.216-14.474z" fill="#313042" fill-rule="evenodd"/>
 </g>
</svg>

<svg xmlns="http://www.w3.org/2000/svg" style="isolation:isolate" width="256" height="256" viewBox="0 0 256 256">
 <defs>
  <clipPath id="_clipPath_71CS3nfljgh1V3xb0QuzON1SBzMVoJjc">
   <rect width="256" height="256"/>
  </clipPath>
 </defs>
 <g clip-path="url(#_clipPath_71CS3nfljgh1V3xb0QuzON1SBzMVoJjc)">
  <defs>
   <filter id="NuXi70QfJr3FmT8j2wNhFyAFWEtKQoOe" width="400%" height="400%" x="-200%" y="-200%" color-interpolation-filters="sRGB" filterUnits="objectBoundingBox">
    <feGaussianBlur xmlns="http://www.w3.org/2000/svg" stdDeviation="1.16"/>
   </filter>
  </defs>
  <g opacity=".1" filter="url(#NuXi70QfJr3FmT8j2wNhFyAFWEtKQoOe)">
   <path d="M 165.685 11.947 C 239.74 11.947 250.324 22.504 250.324 96.491 L 250.324 155.742 C 250.324 229.728 239.74 240.285 165.685 240.285 L 90.315 240.285 C 16.26 240.285 5.676 229.728 5.676 155.742 L 5.676 96.491 C 5.676 22.504 16.26 11.947 90.315 11.947 L 165.685 11.947 Z"/>
  </g>
  <defs>
   <filter id="1Jsl0cVlh4yLD9HSF9NgwXJdqGXy9x4T" width="400%" height="400%" x="-200%" y="-200%" color-interpolation-filters="sRGB" filterUnits="objectBoundingBox">
    <feGaussianBlur xmlns="http://www.w3.org/2000/svg" stdDeviation="2.32"/>
   </filter>
  </defs>
  <g opacity=".2" filter="url(#1Jsl0cVlh4yLD9HSF9NgwXJdqGXy9x4T)">
   <path d="M 165.685 13.986 C 239.74 13.986 250.324 24.543 250.324 98.53 L 250.324 157.78 C 250.324 231.767 239.74 242.324 165.685 242.324 L 90.315 242.324 C 16.26 242.324 5.676 231.767 5.676 157.78 L 5.676 98.53 C 5.676 24.543 16.26 13.986 90.315 13.986 L 165.685 13.986 Z"/>
  </g>
  <path fill="#313042" d="M 165.685 11.947 C 239.741 11.947 250.324 22.504 250.324 96.491 L 250.324 155.742 C 250.324 229.728 239.741 240.285 165.685 240.285 L 90.315 240.285 C 16.26 240.285 5.676 229.728 5.676 155.742 L 5.676 96.491 C 5.676 22.504 16.26 11.947 90.315 11.947 L 165.685 11.947 Z"/>
  <clipPath id="_clipPath_N1FJBPOSTaqYxfHPDplEfKmnTc6rpyoF">
   <path fill="#FFFFFF" d="M 165.685 11.947 C 239.741 11.947 250.324 22.504 250.324 96.491 L 250.324 155.742 C 250.324 229.728 239.741 240.285 165.685 240.285 L 90.315 240.285 C 16.26 240.285 5.676 229.728 5.676 155.742 L 5.676 96.491 C 5.676 22.504 16.26 11.947 90.315 11.947 L 165.685 11.947 Z"/>
  </clipPath>
  <g clip-path="url(#_clipPath_N1FJBPOSTaqYxfHPDplEfKmnTc6rpyoF)">
   <g opacity=".4">
    <linearGradient id="_lgradient_0" x1=".517" x2=".517" y1="0" y2="1">
     <stop offset="0%" style="stop-color:rgb(255,255,255)"/>
     <stop offset="12.5%" stop-opacity=".098" style="stop-color:rgb(255,255,255)"/>
     <stop offset="92.5%" stop-opacity=".098" style="stop-color:rgb(0,0,0)"/>
     <stop offset="100%" stop-opacity=".498" style="stop-color:rgb(0,0,0)"/>
    </linearGradient>
    <path fill="none" stroke="url(#_lgradient_0)" stroke-linecap="round" stroke-linejoin="round" stroke-width="4.077" d="M 165.685 11.947 C 239.741 11.947 250.324 22.504 250.324 96.491 L 250.324 155.742 C 250.324 229.728 239.741 240.285 165.685 240.285 L 90.315 240.285 C 16.26 240.285 5.676 229.728 5.676 155.742 L 5.676 96.491 C 5.676 22.504 16.26 11.947 90.315 11.947 L 165.685 11.947 Z" vector-effect="non-scaling-stroke"/>
   </g>
  </g>
  <g opacity=".4">
   <circle cx="130" cy="131" r="80" vector-effect="non-scaling-stroke"/>
  </g>
  <circle fill="#EBEBEB" cx="128" cy="128" r="80" vector-effect="non-scaling-stroke"/>
  <path fill="#313042" fill-rule="evenodd" d="M 62.784 102.526 C 59.697 110.423 58 119.015 58 128 C 58 166.634 89.366 198 128 198 C 166.634 198 198 166.634 198 128 C 198 89.366 166.634 58 128 58 C 120.848 58 113.945 59.075 107.45 61.085 C 115.061 66.74 120 75.798 120 86 C 120 103.109 106.109 117 89 117 C 77.966 117 68.271 111.223 62.784 102.526 Z"/>
 </g>
</svg>
